src/main/resources/icons/DartIcons/icons/dart_13_dark.svg

<svg xmlns="http://www.w3.org/2000/svg" width="13" height="13" viewBox="0 0 13 13">
  <path fill="#AFB1B3" fill-rule="evenodd" d="M10.2757156,10.9061852 L9.81523747,12.2876197 L5.65714246,12.4 L3.49999994,10.0467537 L3.49999994,4.13046957 L10.2757156,10.9061852 Z M10.8090093,10.3081081 L4.00090117,3.49999994 L10.0467537,3.49999994 L12.4,5.65714264 L12.2876197,9.81523794 L10.8090093,10.3081081 Z M2.69999993,3.63095257 L2.69999993,8.82725969 L2.28571434,8.69142834 L0.600000024,6.78095224 L2.69999993,3.63095257 Z M8.82725929,2.69999993 L3.63095253,2.69999993 L6.78095198,0.600000024 L8.69142795,2.28571434 L8.82725929,2.69999993 Z"/>
</svg>

<svg xmlns="http://www.w3.org/2000/svg" width="13" height="13" viewBox="0 0 13 13"><rect id="frame" width="13" height="13" fill="none"/><path fill="#AFB1B3" fill-rule="evenodd" d="M10.276 10.906l-.46 1.382-4.159.112L3.5 10.047V4.13l6.776 6.776zm.533-.598L4.001 3.5h6.046L12.4 5.657l-.112 4.158-1.479.493zM2.7 3.631v5.196l-.414-.136L.6 6.781l2.1-3.15zM8.827 2.7H3.631L6.781.6l1.91 1.686.136.414z"/></svg>
